src/icon/brand/card-belkart/icon_card-belkart_l_white.svg

<svg width="30px" height="30px" viewBox="0 0 30 30" version="1.1" xmlns="http://www.w3.org/2000/svg"><g stroke="none" stroke-width="1" fill="none" fill-rule="evenodd"><polygon points="0 0 30 0 30 30 0 30"/><path d="M8.08094113,16.746443 L7.09529433,16.746443 L7.09529433,16.746443 C6.97992369,16.746443 6.88635538,16.8409928 6.88635538,16.9555434 L6.88635538,20.9339061 C6.88635538,21.0493659 6.98083212,21.1430065 7.09529433,21.1430065 L11.3322129,21.1430065 L10.6463481,21.8294013 C10.5645894,21.9112232 10.5645894,22.0439565 10.6463481,22.1257784 L13.4579397,24.9386336 C13.5396984,25.0204555 13.6723292,25.0204555 13.7540879,24.9386336 L16.7301054,21.9603164 L16.7301054,22.9330879 C16.7301054,23.0485477 16.8245821,23.1421883 16.9390443,23.1421883 L20.914335,23.1421883 C21.0297057,23.1421883 21.123274,23.0476385 21.123274,22.9330879 L21.123274,18.6801673 L21.8309411,19.3883813 C21.9126999,19.4702032 22.0453307,19.4702032 22.1270894,19.3883813 L24.938681,16.574617 C25.0204397,16.4927951 25.0204397,16.3600618 24.938681,16.2782399 L20.7099382,12.0462294 L21.9190589,13.2562844 L22.9110647,13.2562844 C23.0264353,13.2562844 23.1200036,13.1617346 23.1200036,13.047184 L23.1200036,9.06882131 C23.1200036,8.95336152 23.0255269,8.8597209 22.9110647,8.8597209 L18.6759629,8.8597209 L19.3636446,8.1715078 C19.4444949,8.08968589 19.4444949,7.95695259 19.3636446,7.87513069 L16.5520531,5.06136643 C16.4702943,4.97954452 16.3376635,4.97954452 16.2559048,5.06136643 L13.2526344,8.06695759 L13.2671693,8.05241147 L13.2671693,7.06236647 L13.2671693,7.06236647 C13.2671693,6.94781581 13.1726926,6.85326606 13.0582304,6.85326606 L9.08203125,6.85326606 C8.96666061,6.85326606 8.8730923,6.94781581 8.8730923,7.06236647 L8.8730923,11.3198327 L8.16815044,10.6152552 L8.16815044,10.6152552 L8.16815044,10.6152552 C8.08639172,10.5334333 7.9537609,10.5334333 7.87200218,10.6152552 L5.06131904,13.4281104 C4.97956032,13.5099323 4.97956032,13.6426656 5.06131904,13.7244875 L8.08094113,16.746443 L8.08094113,16.746443 Z M13.0582304,13.2571935 C13.173601,13.2571935 13.2671693,13.1626438 13.2671693,13.0480931 L13.2671693,11.1480067 L12.0280705,9.58884495 L14.8396621,12.4017001 C14.9214208,12.483522 15.0540516,12.483522 15.1358103,12.4017001 L16.5175327,11.01891 L16.7219295,9.06791218 L16.7219295,13.0462748 C16.7219295,13.1608255 16.8164062,13.2553752 16.9308685,13.2553752 L18.9103379,13.2553752 L20.41379,12.0453202 L17.6021984,14.8590845 C17.5204397,14.9409064 17.5204397,15.0736397 17.6021984,15.1554616 L18.9802871,16.5355243 L20.9134266,16.7400791 L16.9381359,16.7400791 C16.8227653,16.7400791 16.7291969,16.8346288 16.7291969,16.9491795 L16.7291969,18.8174462 L17.9819222,20.4111551 L15.1703307,17.5973908 C15.0885719,17.5155689 14.9559411,17.5155689 14.8741824,17.5973908 L13.5333394,18.93927 L13.2835211,20.932997 L13.2835211,16.9546343 C13.2835211,16.8391745 13.1890443,16.7455339 13.0745821,16.7455339 L11.0669513,16.7455339 L9.58621003,17.9555889 L12.3978016,15.1418246 C12.4795603,15.0600027 12.4795603,14.9272694 12.3978016,14.8454475 L10.9906432,13.4372017 L9.08384811,13.2553752 L13.0582304,13.2553752 L13.0582304,13.2571935 Z" fill-opacity="0.9" fill="#FFFFFF"/></g></svg>

<svg width="30" height="30" viewBox="0 0 30 30" xmlns="http://www.w3.org/2000/svg"><g fill="none" fill-rule="evenodd"><path d="M0 0h30v30H0z"/><path d="M8.08 16.746h-.985a.21.21 0 0 0-.209.21v3.978c0 .115.095.209.21.209h4.236l-.686.686a.21.21 0 0 0 0 .297l2.812 2.813a.21.21 0 0 0 .296 0l2.976-2.979v.973c0 .116.095.21.209.21h3.975a.21.21 0 0 0 .21-.21V18.68l.707.708a.21.21 0 0 0 .296 0l2.812-2.813a.21.21 0 0 0 0-.297l-4.23-4.232 1.21 1.21h.992a.21.21 0 0 0 .209-.209V9.07a.21.21 0 0 0-.209-.21h-4.235l.688-.687a.211.211 0 0 0 0-.297l-2.812-2.814a.21.21 0 0 0-.296 0l-3.003 3.006.014-.015v-.99a.21.21 0 0 0-.209-.209H9.082a.21.21 0 0 0-.209.21v4.257l-.705-.705a.21.21 0 0 0-.296 0l-2.81 2.813a.21.21 0 0 0 0 .296l3.019 3.022zm4.978-3.489a.21.21 0 0 0 .21-.209v-1.9l-1.24-1.56 2.812 2.814a.21.21 0 0 0 .296 0l1.382-1.383.204-1.951v3.978c0 .115.094.21.209.21h1.98l1.503-1.21-2.812 2.813a.21.21 0 0 0 0 .296l1.378 1.38 1.933.205h-3.975a.21.21 0 0 0-.209.21v1.867l1.253 1.594-2.812-2.814a.21.21 0 0 0-.296 0l-1.34 1.342-.25 1.994v-3.978a.21.21 0 0 0-.21-.21h-2.007l-1.48 1.21 2.81-2.813a.21.21 0 0 0 0-.297l-1.406-1.408-1.907-.182h3.974v.002z" fill-opacity=".9" fill="#FFF"/></g></svg>
